X:1
T:Title
%%score { ( 1 4 ) | ( 2 3 ) }
L:1/8
Q:1/4=112
M:4/4
K:Ab
V:1 treble nm="Grand Piano"
V:4 treble 
V:2 bass 
V:3 bass 
V:1
 [Ec]4 [DB]2 [CA]2 | [DF]4 [CE]4 | A2 G2 B2 A2 | c4 B4 | d4 c2 B2 | [Ec]4 [EB]2 [EA]2 | %6
w: Robert~Lowry * *||||||
 [EG]2 A2 [B,EG]2 [A,=DF]2 | [G,E]8 | [Ec]4 [EB]2 [EA]2 | [DF]4 [CE]4 | [EA]2 B2 c2 [Fd]2 | %11
w: |||||
 z4 B4[K:bass] | [Ee]4 [Ed]2 [Ec]2 | z4 z2 [FB]2 | z4 G4 | [CA]6 z2 | B4 B2 c2 | B4 G4 | %18
w: |||||||
 [=DB]2 [FA]2 [EG]2 [DF]2 | [EG]4 [GB]4 | [Ac]2 e2 [EB=d]2 [EAc]2 | [EGB]4 [B,EG]4 | %22
w: ||||
 [B,=DF]2 [B,FA]2 [B,EG]2 [A,DF]2 | [G,E]8 | [Ec]4 [EB]2 [EA]2 | [DF]4 [CE]4 | [EA]2 B2 c2 [Fd]2 | %27
w: |||||
 z4 B4[K:bass] | [Ee]4 [Ed]2 [Ec]2 | z4 z2 [FB]2 | z4 G4 |[M:8/4] [CA]8 z8 |] %32
w: |||||
V:2
 [A,,A,]4 [A,,A,]2 [A,,A,]2 | [A,,A,]4 [A,,A,]4 | [E,CE]2 [E,B,E]2 [E,DE]2 [E,CE]2 | %3
 [E,A,E]4 [E,G,E]4 | [E,B,E]4 [E,A,E]2 [E,G,E]2 | [A,,A,]4 [B,,G,]2 [C,A,]2 | z2 F2 B,,2 B,,2 | %7
 E,8 | [A,,A,]4 [B,,G,]2 [C,A,]2 | [D,A,]4 [A,,A,]4 | [C,A,]2 [E,G,E]2 [A,E]2 [D,A,]2 | %11
 [E,A,E]4 [G,E]4 | [C,A,]4 [B,,G,]2 [A,,A,]2 | [D,F,]2 [C,=A,]2 [B,,B,]2 .[D,B,]2 | [E,CE]4 E2 z2 | %15
 [A,,A,]6 z2 | [E,G,E]4 [E,G,E]2 [E,A,E]2 | [E,G,E]4 [E,B,E]4 | %18
 [B,,B,]2 [B,,B,]2 [B,,B,]2 [B,,B,]2 | [E,B,]4 [E,E]4 | z2 c2[K:bass] A,2 A,2 | E,4 E,4 | %22
 B,,2 B,,2 B,,2 B,,2 | E,8 | [A,,A,]4 [B,,G,]2 [C,A,]2 | [D,A,]4 [A,,A,]4 | %26
 [C,A,]2 [E,G,E]2 [A,E]2 [D,A,]2 | [E,A,E]4 [G,E]4 | [C,A,]4 [B,,G,]2 [A,,A,]2 | %29
 [D,F,]2 [C,=A,]2 [B,,B,]2 .[D,B,]2 | [E,CE]4 E2 z2 |[M:8/4] [A,,A,]8 z8 |] %32
V:3
 x8 | x8 | x8 | x8 | x8 | x8 | [B,,B,]4 z4 | z2 D,2 C,2 B,,2 | x8 | x8 | x8 | z4 E,2 z2 | x8 | x8 | %14
 z4 [E,B,]4 | x8 | x8 | x8 | x8 | x8 | [A,E]4[K:bass] z4 | x8 | x8 | z2 D,2 C,2 B,,2 | x8 | x8 | %26
 x8 | z4 E,2 z2 | x8 | x8 | z4 [E,B,]4 |[M:8/4] x16 |] %32
V:4
 x8 | x8 | x8 | x8 | x8 | x8 | x8 | x8 | x8 | x8 | x8 | c4 z2[K:bass] D,2 | x8 | %13
 [FB]2 [Fc]2 [Fd]2 z D | A4 z2 D2 | x8 | x8 | x8 | x8 | x8 | x8 | x8 | x8 | x8 | x8 | x8 | x8 | %27
 c4 z2[K:bass] D,2 | x8 | [FB]2 [Fc]2 [Fd]2 z D | A4 z2 D2 |[M:8/4] x16 |] %32

